assets/icons/printer/warning.svg

<?xml version="1.0" encoding="UTF-8" standalone="no"?>
<svg viewBox="0 0 24 24" height="24" width="24" version="1.1" id="svg6" sodipodi:docname="warning.svg" inkscape:version="1.1 (ce6663b3b7, 2021-05-25)"
   xmlns:inkscape="http://www.inkscape.org/namespaces/inkscape"
   xmlns:sodipodi="http://sodipodi.sourceforge.net/DTD/sodipodi-0.dtd"
   xmlns="http://www.w3.org/2000/svg"
   xmlns:svg="http://www.w3.org/2000/svg">
   <defs id="defs10" />
   <sodipodi:namedview id="namedview8" pagecolor="#ffffff" bordercolor="#666666" borderopacity="1.0" inkscape:pageshadow="2" inkscape:pageopacity="0.0" inkscape:pagecheckerboard="0" showgrid="true" inkscape:zoom="28" inkscape:cx="8.6607143" inkscape:cy="8.5714286" inkscape:window-width="1920" inkscape:window-height="1043" inkscape:window-x="1920" inkscape:window-y="0" inkscape:window-maximized="1" inkscape:current-layer="svg6">
      <inkscape:grid type="xygrid" id="grid913" />
      <inkscape:grid type="xygrid" id="grid957" dotted="true" spacingx="0.5" spacingy="0.5" empspacing="10" />
   </sodipodi:namedview>
   <path id="path1329" style="color:#000000;fill:#808080;stroke-width:1px;stroke-linejoin:round;-inkscape-stroke:none;fill-opacity:1" d="M 17.5 14 A 0.50005 0.50005 0 0 0 17.066406 14.251953 L 13.066406 21.251953 A 0.50005 0.50005 0 0 0 13.5 22 L 21.5 22 A 0.50005 0.50005 0 0 0 21.933594 21.251953 L 17.933594 14.251953 A 0.50005 0.50005 0 0 0 17.5 14 z M 17 16 L 18 16 L 18 18 L 17.800781 19 L 17.199219 19 L 17 18 L 17 16 z M 17.5 20 A 0.5 0.5 0 0 1 18 20.5 A 0.5 0.5 0 0 1 17.5 21 A 0.5 0.5 0 0 1 17 20.5 A 0.5 0.5 0 0 1 17.5 20 z " />
   <path id="rect867" style="fill:#808080;fill-opacity:1;fill-rule:evenodd;stroke-width:0.5;stroke-linecap:round;stroke-linejoin:round" d="m 6,1.9999998 v 5.0078125 c -1.066869,0.02974 -1.979589,0.1711376 -2.705078,0.6328125 -0.836381,0.5322423 -1.294922,1.5093764 -1.294922,2.8593752 v 4 c 0,1.349999 0.458541,2.327133 1.294922,2.859375 0.725489,0.461675 1.638209,0.603072 2.705078,0.632813 v 4.007812 h 6 v -1 h -5 v -6 h -1 v 1.990234 c -0.967854,-0.03569 -1.708166,-0.180764 -2.169922,-0.474609 -0.538618,-0.342757 -0.830078,-0.865626 -0.830078,-2.015625 v -4 c 0,-1.1499989 0.29146,-1.6728682 0.830078,-2.0156251 0.538618,-0.3427569 1.4532565,-0.484375 2.669922,-0.484375 h 0.5 10 0.5 c 1.216665,0 2.131304,0.1416181 2.669922,0.484375 0.538618,0.3427569 0.830078,0.8656262 0.830078,2.0156251 v 1.5 h 1 v -1.5 c 0,-1.3499987 -0.458541,-2.3271329 -1.294922,-2.8593751 -0.725488,-0.4616749 -1.638209,-0.6030727 -2.705078,-0.6328125 v -5.0078125 z m 1,1 h 10 v 4 h -10 z m 11,7 a 1,1 0 0 0 -1,1.0000002 1,1 0 0 0 1,1 1,1 0 0 0 1,-1 1,1 0 0 0 -1,-1.0000002 z m -10,7.0000002 v 1 h 4 v -1 z m 0,2 v 1 h 4 v -1 z" />
</svg>

<svg height="24" width="24" xmlns="http://www.w3.org/2000/svg"><path style="color:#000;fill:gray;stroke-width:1px;stroke-linejoin:round;-inkscape-stroke:none;fill-opacity:1" d="M17.5 14a.5.5 0 0 0-.434.252l-4 7A.5.5 0 0 0 13.5 22h8a.5.5 0 0 0 .434-.748l-4-7A.5.5 0 0 0 17.5 14zm-.5 2h1v2l-.2 1h-.6l-.2-1v-2zm.5 4a.5.5 0 0 1 .5.5.5.5 0 0 1-.5.5.5.5 0 0 1-.5-.5.5.5 0 0 1 .5-.5z"/><path style="fill:gray;fill-opacity:1;stroke-width:.5;stroke-linecap:round;stroke-linejoin:round" d="M6 2v5.008c-1.067.03-1.98.17-2.705.633C2.459 8.173 2 9.15 2 10.5v4c0 1.35.459 2.327 1.295 2.86.725.461 1.638.602 2.705.632V22h6v-1H7v-6H6v1.99c-.968-.035-1.708-.18-2.17-.474C3.291 16.173 3 15.65 3 14.5v-4c0-1.15.291-1.673.83-2.016C4.37 8.142 5.283 8 6.5 8h11c1.217 0 2.131.142 2.67.484.539.343.83.866.83 2.016V12h1v-1.5c0-1.35-.459-2.327-1.295-2.86-.725-.461-1.638-.602-2.705-.632V2zm1 1h10v4H7zm11 7a1 1 0 0 0-1 1 1 1 0 0 0 1 1 1 1 0 0 0 1-1 1 1 0 0 0-1-1zM8 17v1h4v-1zm0 2v1h4v-1z"/></svg>
